img/icons/stuff-icon3.svg

<svg width="36" height="36" viewBox="0 0 36 36" fill="none" xmlns="http://www.w3.org/2000/svg">
<path fill-rule="evenodd" clip-rule="evenodd" d="M3 6.75C3 4.67893 4.67893 3 6.75 3H10.5C11.3284 3 12 3.67157 12 4.5C12 5.32843 11.3284 6 10.5 6H6.75C6.33579 6 6 6.33579 6 6.75V10.5C6 11.3284 5.32843 12 4.5 12C3.67157 12 3 11.3284 3 10.5V6.75ZM29.25 3C31.3211 3 33 4.67893 33 6.75V10.5C33 11.3284 32.3284 12 31.5 12C30.6716 12 30 11.3284 30 10.5V6.75C30 6.33579 29.6642 6 29.25 6H25.5C24.6716 6 24 5.32843 24 4.5C24 3.67157 24.6716 3 25.5 3H29.25ZM3 29.25C3 31.3211 4.67893 33 6.75 33H10.5C11.3284 33 12 32.3284 12 31.5C12 30.6716 11.3284 30 10.5 30H6.75C6.33579 30 6 29.6642 6 29.25V25.5C6 24.6716 5.32843 24 4.5 24C3.67157 24 3 24.6716 3 25.5V29.25ZM29.25 33C31.3211 33 33 31.3211 33 29.25V25.5C33 24.6716 32.3284 24 31.5 24C30.6716 24 30 24.6716 30 25.5V29.25C30 29.6642 29.6642 30 29.25 30H25.5C24.6716 30 24 30.6716 24 31.5C24 32.3284 24.6716 33 25.5 33H29.25ZM9.30997 17.9295C9.65641 17.4404 10.1918 16.7809 10.934 16.1211C12.4059 14.8128 14.6892 13.5 18 13.5C21.3108 13.5 23.5941 14.8128 25.066 16.1211C25.8082 16.7809 26.3436 17.4404 26.69 17.9295L26.7395 18L26.69 18.0705C26.3436 18.5596 25.8082 19.2191 25.066 19.8789C23.5941 21.1872 21.3108 22.5 18 22.5C14.6892 22.5 12.4059 21.1872 10.934 19.8789C10.1918 19.2191 9.65641 18.5596 9.30997 18.0705L9.26053 18L9.30997 17.9295ZM28.5 18C29.8416 18.6708 29.8413 18.6715 29.841 18.6722L29.8402 18.6737L29.8384 18.6772L29.8341 18.6858L29.8219 18.7094C29.8122 18.728 29.7994 18.7523 29.7834 18.7818C29.7514 18.8408 29.7067 18.921 29.6488 19.0194C29.533 19.2158 29.3639 19.4858 29.1381 19.8045C28.6877 20.4404 28.0043 21.2809 27.059 22.1211C25.1559 23.8128 22.1892 25.5 18 25.5C13.8108 25.5 10.8441 23.8128 8.94095 22.1211C7.99567 21.2809 7.31234 20.4404 6.8619 19.8045C6.6361 19.4858 6.46702 19.2158 6.35125 19.0194C6.29331 18.921 6.24856 18.8408 6.21658 18.7818C6.20059 18.7523 6.18778 18.728 6.1781 18.7094L6.16591 18.6858L6.16156 18.6772L6.15981 18.6737L6.15905 18.6722C6.1587 18.6715 6.15836 18.6708 7.5 18C6.15836 17.3292 6.1587 17.3285 6.15905 17.3278L6.15981 17.3263L6.16156 17.3228L6.16591 17.3142L6.1781 17.2906C6.18778 17.272 6.20059 17.2477 6.21658 17.2182C6.24856 17.1592 6.29331 17.079 6.35125 16.9806C6.46702 16.7842 6.6361 16.5142 6.8619 16.1955C7.31234 15.5596 7.99567 14.7191 8.94095 13.8789C10.8441 12.1872 13.8108 10.5 18 10.5C22.1892 10.5 25.1559 12.1872 27.059 13.8789C28.0043 14.7191 28.6877 15.5596 29.1381 16.1955C29.3639 16.5142 29.533 16.7842 29.6488 16.9806C29.7067 17.079 29.7514 17.1592 29.7834 17.2182C29.7994 17.2477 29.8122 17.272 29.8219 17.2906L29.8341 17.3142L29.8384 17.3228L29.8402 17.3263L29.841 17.3278C29.8413 17.3285 29.8416 17.3292 28.5 18ZM7.5 18L6.15836 18.6708C5.94721 18.2485 5.94721 17.7515 6.15836 17.3292L7.5 18ZM29.8416 18.6708L28.5 18L29.8416 17.3292C30.0528 17.7515 30.0528 18.2485 29.8416 18.6708ZM8.8385 18.6771C8.8383 18.6775 8.83833 18.6774 8.83861 18.6768L8.8385 18.6771ZM18 15C16.3431 15 15 16.3431 15 18C15 19.6569 16.3431 21 18 21C19.6569 21 21 19.6569 21 18C21 16.3431 19.6569 15 18 15Z" fill="#E3000F"/>
</svg>

<svg width="36" height="36" fill="none" xmlns="http://www.w3.org/2000/svg"><path fill-rule="evenodd" clip-rule="evenodd" d="M3 6.75A3.75 3.75 0 016.75 3h3.75a1.5 1.5 0 010 3H6.75a.75.75 0 00-.75.75v3.75a1.5 1.5 0 01-3 0V6.75zM29.25 3A3.75 3.75 0 0133 6.75v3.75a1.5 1.5 0 01-3 0V6.75a.75.75 0 00-.75-.75H25.5a1.5 1.5 0 010-3h3.75zM3 29.25A3.75 3.75 0 006.75 33h3.75a1.5 1.5 0 000-3H6.75a.75.75 0 01-.75-.75V25.5a1.5 1.5 0 00-3 0v3.75zM29.25 33A3.75 3.75 0 0033 29.25V25.5a1.5 1.5 0 00-3 0v3.75a.75.75 0 01-.75.75H25.5a1.5 1.5 0 000 3h3.75zM9.31 17.93c.346-.49.882-1.15 1.624-1.809C12.406 14.813 14.689 13.5 18 13.5c3.31 0 5.594 1.313 7.066 2.621a10.79 10.79 0 011.624 1.809l.05.07-.05.07a10.79 10.79 0 01-1.624 1.809C23.594 21.187 21.311 22.5 18 22.5c-3.31 0-5.594-1.313-7.066-2.621A10.792 10.792 0 019.31 18.07L9.26 18l.05-.07zM28.5 18c1.342.67 1.341.672 1.341.672v.002l-.003.003-.004.009-.012.023a4.973 4.973 0 01-.173.31 11.5 11.5 0 01-.51.786 13.786 13.786 0 01-2.08 2.316C25.156 23.813 22.189 25.5 18 25.5c-4.19 0-7.156-1.687-9.059-3.379a13.788 13.788 0 01-2.08-2.316 11.253 11.253 0 01-.644-1.023 4.846 4.846 0 01-.039-.073l-.012-.023-.004-.009-.002-.003-.001-.002L7.5 18c-1.342-.67-1.341-.672-1.341-.672v-.002l.003-.003.004-.009.012-.023.039-.073a11.253 11.253 0 01.645-1.023A13.788 13.788 0 018.94 13.88c1.904-1.693 4.871-3.38 9.06-3.38 4.19 0 7.156 1.687 9.059 3.379.945.84 1.629 1.68 2.08 2.316a11.268 11.268 0 01.644 1.023c.016.03.03.054.039.073l.012.023.004.009.002.003.001.002L28.5 18zm-21 0l-1.342.67a1.5 1.5 0 010-1.34L7.5 18zm22.342.67L28.5 18l1.342-.67a1.5 1.5 0 010 1.34zm-21.003.007zM18 15a3 3 0 100 6 3 3 0 000-6z" fill="#E3000F"/></svg>
